img/m2.svg

<?xml version="1.0" encoding="UTF-8"?>
<svg width="48px" height="48px" viewBox="0 0 48 48" version="1.1" xmlns="http://www.w3.org/2000/svg" xmlns:xlink="http://www.w3.org/1999/xlink">
    <!-- Generator: Sketch 60.1 (88133) - https://sketch.com -->
    <title>m2</title>
    <desc>Created with Sketch.</desc>
    <g id="m2" stroke="none" stroke-width="1" fill="none" fill-rule="evenodd">
        <path d="M32.439281,13.7142857 L42.9892905,13.7142857 C44.1355288,13.7142857 44.5511826,13.8336329 44.9702302,14.057742 C45.3892778,14.2818512 45.7181488,14.6107222 45.942258,15.0297698 C46.1663671,15.4488174 46.2857143,15.8644712 46.2857143,17.0107095 L46.2857143,42.9892905 C46.2857143,44.1355288 46.1663671,44.5511826 45.942258,44.9702302 C45.7181488,45.3892778 45.3892778,45.7181488 44.9702302,45.942258 C44.5511826,46.1663671 44.1355288,46.2857143 42.9892905,46.2857143 L32.439281,46.2857143 C31.2930426,46.2857143 30.8773889,46.1663671 30.4583412,45.942258 C30.0392936,45.7181488 29.7104226,45.3892778 29.4863135,44.9702302 C29.2622044,44.5511826 29.1428571,44.1355288 29.1428571,42.9892905 L29.1428571,17.0107095 C29.1428571,15.8644712 29.2622044,15.4488174 29.4863135,15.0297698 C29.7104226,14.6107222 30.0392936,14.2818512 30.4583412,14.057742 C30.8773889,13.8336329 31.2930426,13.7142857 32.439281,13.7142857 Z" id="矩形备份-39" stroke="#7CD7B3" stroke-width="3.42857143"></path>
        <path d="M5.01070954,1.71428571 L30.9892905,1.71428571 C32.1355288,1.71428571 32.5511826,1.83363293 32.9702302,2.05774205 C33.3892778,2.28185117 33.7181488,2.61072219 33.942258,3.02976981 C34.1663671,3.44881743 34.2857143,3.86447116 34.2857143,5.01070954 L34.2857143,38.7035762 C34.2857143,39.8498146 34.1663671,40.2654683 33.942258,40.6845159 C33.7181488,41.1035635 33.3892778,41.4324345 32.9702302,41.6565437 C32.5511826,41.8806528 32.1355288,42 30.9892905,42 L5.01070954,42 C3.86447116,42 3.44881743,41.8806528 3.02976981,41.6565437 C2.61072219,41.4324345 2.28185117,41.1035635 2.05774205,40.6845159 C1.83363293,40.2654683 1.71428571,39.8498146 1.71428571,38.7035762 L1.71428571,5.01070954 C1.71428571,3.86447116 1.83363293,3.44881743 2.05774205,3.02976981 C2.28185117,2.61072219 2.61072219,2.28185117 3.02976981,2.05774205 C3.44881743,1.83363293 3.86447116,1.71428571 5.01070954,1.71428571 Z" id="矩形" stroke="#935ED9" stroke-width="3.42857143"></path>
        <rect id="矩形" fill="#FFAA00" x="9.42857143" y="36.8571429" width="17.1428571" height="2.57142857" rx="0.857142857"></rect>
    </g>
</svg>

<svg xmlns="http://www.w3.org/2000/svg" width="48" height="48" fill="none" fill-rule="evenodd" xmlns:v="https://vecta.io/nano"><g stroke-width="3.429"><path d="M32.44 13.714h10.55c1.146 0 1.562.12 1.98.343s.748.553.972.972.343.835.343 1.98v25.98c0 1.146-.12 1.562-.343 1.98s-.553.748-.972.972-.835.343-1.98.343H32.44c-1.146 0-1.562-.12-1.98-.343s-.748-.553-.972-.972-.343-.835-.343-1.98V17.01c0-1.146.12-1.562.343-1.98s.553-.748.972-.972.835-.343 1.98-.343z" stroke="#7cd7b3"/><path d="M5.01 1.714h25.98c1.146 0 1.562.12 1.98.343s.748.553.972.972.343.835.343 1.98v33.693c0 1.146-.12 1.562-.343 1.98s-.553.748-.972.972-.835.343-1.98.343H5.01c-1.146 0-1.562-.12-1.98-.343s-.748-.553-.972-.972-.343-.835-.343-1.98V5.01c0-1.146.12-1.562.343-1.98s.553-.748.972-.972.835-.343 1.98-.343z" stroke="#935ed9"/></g><rect fill="#fa0" x="9.429" y="36.857" width="17.143" height="2.571" rx=".857"/></svg>
